icons/tokens/0x39AA39c021dfbaE8faC545936693aC917d5E7563/logo.svg

<svg width="32" height="32" viewBox="0 0 32 32" fill="none" xmlns="http://www.w3.org/2000/svg">
<path fill-rule="evenodd" clip-rule="evenodd" d="M32.0001 16.0001C32.0001 7.17164 24.8285 0.00012207 16.0001 0.00012207C7.17158 0.00012207 6.10352e-05 7.17164 6.10352e-05 16.0001C6.10352e-05 24.8286 7.17158 32.0001 16.0001 32.0001C24.8285 32.0001 32.0001 24.8286 32.0001 16.0001Z" fill="white"/>
<path fill-rule="evenodd" clip-rule="evenodd" d="M26.2846 28.2568L25.0628 26.8008C19.3418 31.6011 10.8698 31.1076 5.74472 25.6756C0.6196 20.2433 0.6196 11.7569 5.74472 6.3246C10.8698 0.892603 19.3418 0.399163 25.0628 5.19948L26.2846 3.74348C19.7924 -1.7042 10.178 -1.14452 4.362 5.02028C-1.454 11.1848 -1.454 20.8155 4.362 26.98C10.178 33.1448 19.7924 33.7044 26.2846 28.2568Z" fill="url(#paint0_linear)"/>
<path fill-rule="evenodd" clip-rule="evenodd" d="M26.2846 28.2568L25.0628 26.8007C28.2554 24.1217 30.0993 20.1678 30.0993 16.0001C30.0993 11.8324 28.2554 7.87851 25.0628 5.19947L26.2846 3.74347C29.9076 6.78347 32.0001 11.2705 32.0001 16.0001C32.0001 20.7297 29.9076 25.2168 26.2846 28.2568Z" fill="#EDF0F2"/>
<path fill-rule="evenodd" clip-rule="evenodd" d="M14.0467 23.2095C14.0467 23.4702 13.8654 23.557 13.6023 23.557C10.31 22.5032 8 19.5098 8 15.9893C8 12.4689 10.31 9.47549 13.6023 8.42171C13.8662 8.33722 14.0467 8.50852 14.0467 8.77508C14.0467 8.97955 14.0467 9.18422 14.0467 9.38868C14.0467 9.56822 13.9533 9.74184 13.7777 9.82865C11.1987 10.7956 9.42101 13.1755 9.42101 15.9893C9.42101 18.8091 11.2866 21.2699 13.7777 22.15C13.9533 22.2368 14.0467 22.4164 14.0467 22.59C14.0467 22.7966 14.0467 23.0032 14.0467 23.2095Z" fill="black"/>
<path fill-rule="evenodd" clip-rule="evenodd" d="M16.7134 21.0094C16.7134 21.183 16.5321 21.3566 16.3567 21.3566C16.1188 21.3566 15.8812 21.3566 15.6433 21.3566C15.468 21.3566 15.2866 21.183 15.2866 21.0094C15.2866 20.6562 15.2866 20.3029 15.2866 19.9497C13.8654 19.7761 13.158 18.9827 12.889 17.8364C12.889 17.6626 12.9767 17.489 13.158 17.489C13.423 17.489 13.6881 17.489 13.9533 17.489C14.1346 17.489 14.2223 17.5758 14.31 17.7494C14.4913 18.3691 14.842 18.8959 16 18.8959C16.889 18.8959 17.5087 18.4559 17.5087 17.7494C17.5087 17.049 17.158 16.7826 15.9123 16.6088C14.0459 16.3486 13.158 15.8157 13.158 14.316C13.158 13.1754 14.0467 12.2953 15.2866 12.1157C15.2866 11.7645 15.2866 11.4132 15.2866 11.0619C15.2866 10.8883 15.468 10.7088 15.6433 10.7088C15.8812 10.7088 16.1188 10.7088 16.3567 10.7088C16.5321 10.7088 16.7134 10.8883 16.7134 11.0619C16.7134 11.4132 16.7134 11.7645 16.7134 12.1157C17.7777 12.2953 18.4913 12.9091 18.6667 13.876C18.6667 14.0556 18.579 14.2292 18.3977 14.2292C18.1617 14.2292 17.926 14.2292 17.69 14.2292C17.5087 14.2292 17.421 14.1424 17.3334 13.9685C17.158 13.349 16.7134 13.0886 15.9123 13.0886C15.0234 13.0886 14.579 13.5286 14.579 14.1424C14.579 14.756 14.842 15.1091 16.1754 15.2887C18.048 15.5409 18.9357 16.0761 18.9357 17.5758C18.9357 18.7164 18.0467 19.6893 16.7134 19.9497V21.0094Z" fill="black"/>
<path fill-rule="evenodd" clip-rule="evenodd" d="M18.3977 23.5569C18.1346 23.6496 17.9533 23.4701 17.9533 23.2094C17.9533 23.0031 17.9533 22.7965 17.9533 22.5899C17.9533 22.4163 18.0467 22.2368 18.2223 22.15C20.8013 21.183 22.579 18.8091 22.579 15.9893C22.579 13.1754 20.7134 10.7087 18.2223 9.82858C18.0467 9.74176 17.9533 9.56814 17.9533 9.3886C17.9533 9.18414 17.9533 8.97947 17.9533 8.775C17.9533 8.50844 18.1346 8.42163 18.3977 8.42163C21.6024 9.47541 24 12.4688 24 15.9893C24 19.5097 21.6901 22.5031 18.3977 23.5569Z" fill="black"/>
<defs>
<linearGradient id="paint0_linear" x1="3.37603" y1="0" x2="3.37603" y2="32.0002" gradientUnits="userSpaceOnUse">
<stop stop-color="#27D3A2"/>
<stop offset="1" stop-color="#9388FD"/>
</linearGradient>
</defs>
</svg>

<svg width="32" height="32" fill="none" xmlns="http://www.w3.org/2000/svg"><path fill-rule="evenodd" clip-rule="evenodd" d="M32 16c0-8.828-7.172-16-16-16S0 7.172 0 16c0 8.829 7.172 16 16 16s16-7.171 16-16z" fill="#fff"/><path fill-rule="evenodd" clip-rule="evenodd" d="M26.285 28.257L25.063 26.8c-5.721 4.8-14.193 4.307-19.318-1.125-5.125-5.433-5.125-13.92 0-19.351C10.87.893 19.342.399 25.063 5.199l1.222-1.456C19.792-1.704 10.178-1.145 4.362 5.02c-5.816 6.165-5.816 15.796 0 21.96 5.816 6.165 15.43 6.724 21.923 1.277z" fill="url(#paint0_linear)"/><path fill-rule="evenodd" clip-rule="evenodd" d="M26.285 28.257L25.063 26.8a14.1 14.1 0 000-21.602l1.222-1.456a16 16 0 010 24.514z" fill="#EDF0F2"/><path fill-rule="evenodd" clip-rule="evenodd" d="M14.047 23.21c0 .26-.182.347-.445.347C10.31 22.503 8 19.51 8 15.989c0-3.52 2.31-6.514 5.602-7.567.264-.085.445.087.445.353v.614c0 .18-.094.353-.27.44-2.578.967-4.356 3.346-4.356 6.16 0 2.82 1.866 5.28 4.357 6.161a.49.49 0 01.269.44v.62z" fill="#000"/><path fill-rule="evenodd" clip-rule="evenodd" d="M16.713 21.01c0 .173-.18.347-.356.347h-.714c-.175 0-.356-.174-.356-.348v-1.06c-1.422-.173-2.129-.966-2.398-2.113 0-.173.088-.347.269-.347h.795c.182 0 .27.087.357.26.181.62.532 1.147 1.69 1.147.889 0 1.509-.44 1.509-1.147 0-.7-.351-.966-1.597-1.14-1.866-.26-2.754-.793-2.754-2.293 0-1.14.889-2.02 2.129-2.2v-1.054c0-.174.181-.353.356-.353h.714c.175 0 .356.18.356.353v1.054c1.065.18 1.778.793 1.954 1.76 0 .18-.088.353-.27.353h-.707c-.181 0-.269-.087-.357-.26-.175-.62-.62-.88-1.42-.88-.89 0-1.334.44-1.334 1.053 0 .614.263.967 1.596 1.147 1.873.252 2.76.787 2.76 2.287 0 1.14-.888 2.113-2.222 2.374v1.06z" fill="#000"/><path fill-rule="evenodd" clip-rule="evenodd" d="M18.398 23.557c-.263.093-.445-.087-.445-.348v-.62a.49.49 0 01.27-.439c2.578-.967 4.356-3.34 4.356-6.16 0-2.815-1.866-5.281-4.357-6.161a.484.484 0 01-.269-.44v-.614c0-.267.182-.353.445-.353C21.602 9.475 24 12.469 24 15.989c0 3.52-2.31 6.514-5.602 7.568z" fill="#000"/><defs><linearGradient id="paint0_linear" x1="3.376" y1="0" x2="3.376" y2="32" gradientUnits="userSpaceOnUse"><stop stop-color="#27D3A2"/><stop offset="1" stop-color="#9388FD"/></linearGradient></defs></svg>
